icons/skills/bootstrap.svg

<?xml version="1.0" encoding="UTF-8"?>
<svg xmlns="http://www.w3.org/2000/svg" xmlns:xlink="http://www.w3.org/1999/xlink" width="px" height="px" viewBox="0 0 400 400" version="1.1">
<g id="surface1">
<path style=" stroke:none;fill-rule:nonzero;fill:rgb(33.72549%,23.921569%,48.627451%);fill-opacity:1;" d="M 21.542969 332.4375 C 21.542969 357.855469 42.148438 378.457031 67.5625 378.457031 L 332.4375 378.457031 C 357.855469 378.457031 378.457031 357.851562 378.457031 332.4375 L 378.457031 67.5625 C 378.457031 42.144531 357.851562 21.542969 332.4375 21.542969 L 67.5625 21.542969 C 42.144531 21.542969 21.542969 42.148438 21.542969 67.5625 Z M 21.542969 332.4375 "/>
<path style=" stroke:none;fill-rule:nonzero;fill:rgb(100%,100%,100%);fill-opacity:1;" d="M 169.546875 179.417969 L 169.546875 128.875 L 214.039062 128.875 C 218.277344 128.875 222.363281 129.226562 226.296875 129.933594 C 230.230469 130.640625 233.710938 131.902344 236.738281 133.71875 C 239.765625 135.535156 242.1875 138.054688 244.003906 141.285156 C 245.816406 144.511719 246.726562 148.648438 246.726562 153.691406 C 246.726562 162.773438 244.003906 169.332031 238.554688 173.367188 C 233.105469 177.402344 226.144531 179.417969 217.671875 179.417969 Z M 122.03125 91.949219 L 122.03125 308.050781 L 226.75 308.050781 C 236.4375 308.050781 245.867188 306.839844 255.050781 304.417969 C 264.230469 301.996094 272.402344 298.265625 279.566406 293.21875 C 286.726562 288.175781 292.429688 281.667969 296.664062 273.699219 C 300.902344 265.726562 303.019531 256.296875 303.019531 245.398438 C 303.019531 231.878906 299.742188 220.328125 293.183594 210.746094 C 286.625 201.160156 276.691406 194.453125 263.371094 190.617188 C 273.058594 185.976562 280.371094 180.023438 285.316406 172.761719 C 290.257812 165.496094 292.730469 156.417969 292.730469 145.519531 C 292.730469 135.433594 291.066406 126.957031 287.738281 120.097656 C 284.40625 113.238281 279.714844 107.738281 273.664062 103.601562 C 267.609375 99.464844 260.347656 96.488281 251.871094 94.675781 C 243.398438 92.859375 234.015625 91.949219 223.722656 91.949219 Z M 169.546875 271.125 L 169.546875 211.804688 L 221.300781 211.804688 C 231.59375 211.804688 239.867188 214.175781 246.121094 218.917969 C 252.375 223.65625 255.503906 231.578125 255.503906 242.675781 C 255.503906 248.324219 254.542969 252.964844 252.628906 256.597656 C 250.710938 260.230469 248.136719 263.105469 244.910156 265.222656 C 241.679688 267.34375 237.949219 268.855469 233.710938 269.761719 C 229.472656 270.671875 225.035156 271.125 220.394531 271.125 Z M 169.546875 271.125 "/>
</g>
</svg>

<?xml version="1.0" encoding="UTF-8" standalone="no"?>
<svg
   width="px"
   height="px"
   viewBox="0 0 400 400"
   version="1.1"
   id="svg190"
   sodipodi:docname="bootstrap.svg"
   inkscape:version="1.2.2 (732a01da63, 2022-12-09)"
   xmlns:inkscape="http://www.inkscape.org/namespaces/inkscape"
   xmlns:sodipodi="http://sodipodi.sourceforge.net/DTD/sodipodi-0.dtd"
   xmlns="http://www.w3.org/2000/svg"
   xmlns:svg="http://www.w3.org/2000/svg">
  <defs
     id="defs194" />
  <sodipodi:namedview
     id="namedview192"
     pagecolor="#ffffff"
     bordercolor="#000000"
     borderopacity="0.25"
     inkscape:showpageshadow="2"
     inkscape:pageopacity="0.0"
     inkscape:pagecheckerboard="0"
     inkscape:deskcolor="#d1d1d1"
     showgrid="false"
     inkscape:zoom="1.4796209"
     inkscape:cx="323.73156"
     inkscape:cy="227.76104"
     inkscape:window-width="1920"
     inkscape:window-height="1017"
     inkscape:window-x="-8"
     inkscape:window-y="-8"
     inkscape:window-maximized="1"
     inkscape:current-layer="svg190" />
  <g
     id="surface1"
     transform="matrix(1.1174026,0,0,1.1174026,-23.480512,-23.480512)">
    <path
       style="fill:#543a7a;fill-opacity:1;fill-rule:nonzero;stroke:none"
       d="m 21.542969,332.4375 c 0,25.41797 20.605469,46.01953 46.019531,46.01953 h 264.875 c 25.41797,0 46.01953,-20.60547 46.01953,-46.01953 V 67.5625 c 0,-25.417969 -20.60547,-46.019531 -46.01953,-46.019531 H 67.5625 c -25.417969,0 -46.019531,20.605469 -46.019531,46.019531 z m 0,0"
       id="path185" />
    <path
       style="fill:#ffffff;fill-opacity:1;fill-rule:nonzero;stroke:none"
       d="M 169.54687,179.41797 V 128.875 h 44.49219 c 4.23828,0 8.32422,0.35156 12.25781,1.05859 3.9336,0.70703 7.41407,1.96875 10.44141,3.78516 3.02734,1.81641 5.44922,4.33594 7.26563,7.56641 1.8125,3.22656 2.72265,7.36328 2.72265,12.40625 0,9.08203 -2.72265,15.64062 -8.17187,19.67578 -5.44922,4.03515 -12.41016,6.05078 -20.88282,6.05078 z M 122.03125,91.949219 V 308.05078 H 226.75 c 9.6875,0 19.11719,-1.21094 28.30078,-3.63281 9.17969,-2.42188 17.35156,-6.15235 24.51563,-11.19922 7.16015,-5.04297 12.86328,-11.55078 17.09765,-19.51953 4.23828,-7.97266 6.35547,-17.40235 6.35547,-28.30078 0,-13.51953 -3.27734,-25.07032 -9.83594,-34.65235 -6.55859,-9.58593 -16.49218,-16.29297 -29.8125,-20.1289 9.6875,-4.64063 17,-10.59375 21.94532,-17.85547 4.9414,-7.26563 7.41406,-16.34375 7.41406,-27.24219 0,-10.08594 -1.66406,-18.5625 -4.99219,-25.42187 -3.33203,-6.85938 -8.02344,-12.35938 -14.07422,-16.4961 -6.05469,-4.136716 -13.3164,-7.113279 -21.79297,-8.925779 -8.47265,-1.816406 -17.85547,-2.726562 -28.14843,-2.726562 z M 169.54687,271.125 v -59.32031 h 51.75391 c 10.29297,0 18.56641,2.37109 24.82031,7.11328 6.25391,4.73828 9.38282,12.66015 9.38282,23.75781 0,5.64844 -0.96094,10.28906 -2.875,13.92188 -1.91797,3.63281 -4.49219,6.50781 -7.71875,8.625 -3.23047,2.12109 -6.96094,3.63281 -11.19922,4.53906 -4.23828,0.91015 -8.67578,1.36328 -13.31641,1.36328 z m 0,0"
       id="path187" />
  </g>
</svg>
